img/manaSymbols/outline/outlineu.svg

﻿<?xml version="1.0" encoding="utf-8"?>
<svg width="660" height="660" viewBox="0 0 660 660" version="1.1" xmlns="http://www.w3.org/2000/svg" xml:space="preserve" style="fill-rule: evenodd; clip-rule: evenodd; stroke-linejoin: round; stroke-miterlimit: 2;" preserveAspectRatio="xMidYMid meet" zoomAndPan="magnify" contentScriptType="application/ecmascript" contentStyleType="text/css">
  <path d="M300-30C117.868-30-30 117.868-30 300s147.868 330 330 330 330-147.868 330-330S482.132-30 300-30zm0 30c165.575 0 300 134.425 300 300S465.575 600 300 600 0 465.575 0 300 134.425 0 300 0z" style="fill: rgb(0, 110, 175);" transform="matrix(1,0,0,1,30,30)" />
  <path d="M546.93 375.53c-28.722 29.23-64.1 43.842-106.13 43.842-47.17 0-84.59-16.14-112.27-48.44-26.15-30.762-39.22-69.972-39.22-117.64 0-51.26 22.302-109.72 66.9-175.34 36.38-53.814 79.19-100.98 128.41-141.48-7.182 32.814-10.758 56.13-10.758 69.972 0 31.794 9.984 62.802 29.976 93.05 24.612 35.88 43.31 62.56 56.14 79.968 19.992 30.26 29.988 59.73 29.988 88.42 0 42.558-14.346 78.44-43.04 107.65m-.774-164.17c-7.686-17.17-16.662-28.572-26.916-34.22 1.536 3.084 2.31 7.44 2.31 13.08 0 10.77-3.072 26.14-9.234 46.13l-9.984 30.762c0 17.94 8.952 26.916 26.904 26.916 18.96 0 28.452-12.57 28.452-37.686 0-12.804-3.84-27.792-11.532-44.988" style="fill: rgb(0, 110, 175); fill-rule: nonzero;" transform="matrix(1,0,0,1,-112.01,156.79)" />
</svg>

<?xml version="1.0" encoding="UTF-8" standalone="no"?>
<!DOCTYPE svg PUBLIC "-//W3C//DTD SVG 1.1//EN" "http://www.w3.org/Graphics/SVG/1.1/DTD/svg11.dtd">
<svg width="660" height="660" viewBox="0 0 660 660" version="1.1" xmlns="http://www.w3.org/2000/svg" xmlns:xlink="http://www.w3.org/1999/xlink" xml:space="preserve" xmlns:serif="http://www.serif.com/" style="fill-rule:evenodd;clip-rule:evenodd;stroke-linejoin:round;stroke-miterlimit:2;">
    <g transform="matrix(1,0,0,1,30,30)">
        <path d="M300,-30C117.868,-30 -30,117.868 -30,300C-30,482.132 117.868,630 300,630C482.132,630 630,482.132 630,300C630,117.868 482.132,-30 300,-30ZM300,0C465.575,0 600,134.425 600,300C600,465.575 465.575,600 300,600C134.425,600 0,465.575 0,300C0,134.425 134.425,0 300,0Z" style="fill:rgb(0,110,175);"/>
    </g>
    <g transform="matrix(1,0,0,1,-112.01,156.79)">
        <path d="M546.93,375.53C518.208,404.76 482.83,419.372 440.8,419.372C393.63,419.372 356.21,403.232 328.53,370.932C302.38,340.17 289.31,300.96 289.31,253.292C289.31,202.032 311.612,143.572 356.21,77.952C392.59,24.138 435.4,-23.028 484.62,-63.528C477.438,-30.714 473.862,-7.398 473.862,6.444C473.862,38.238 483.846,69.246 503.838,99.494C528.45,135.374 547.148,162.054 559.978,179.462C579.97,209.722 589.966,239.192 589.966,267.882C589.967,310.44 575.62,346.322 546.926,375.532M546.152,211.362C538.466,194.192 529.49,182.79 519.236,177.142C520.772,180.226 521.546,184.582 521.546,190.222C521.546,200.992 518.474,216.362 512.312,236.352L502.328,267.114C502.328,285.054 511.28,294.03 529.232,294.03C548.192,294.03 557.684,281.46 557.684,256.344C557.684,243.54 553.844,228.552 546.152,211.356" style="fill:rgb(0,110,175);fill-rule:nonzero;"/>
    </g>
</svg>
